tools/download-figma-icons/icons/outlined-large/monkey-blind.svg

<svg width="64" height="64" viewBox="0 0 64 64" fill="none" xmlns="http://www.w3.org/2000/svg">
<path d="M24.4884 46.6478C24.4884 46.7878 24.4384 50.1784 26.6773 52.4788C27.9967 53.829 29.7859 54.5192 31.9849 54.5192C34.1838 54.5192 35.973 53.829 37.2924 52.4788C39.5413 50.1784 39.4913 46.7978 39.4813 46.6478C39.4614 45.8376 38.7917 45.1875 37.982 45.1875H31.9849H25.9877C25.178 45.1875 24.5084 45.8376 24.4884 46.6478ZM31.9849 48.188H36.2828C36.1029 48.9082 35.7731 49.7483 35.1334 50.3984C34.3837 51.1486 33.3542 51.5186 31.9849 51.5186C30.6155 51.5186 29.586 51.1486 28.8363 50.3984C28.1966 49.7483 27.8568 48.9082 27.6869 48.188H31.9849Z" fill="black"/>
<path d="M29.4861 43.0063C30.3142 43.0063 30.9854 42.3348 30.9854 41.5063C30.9854 40.6779 30.3142 40.0063 29.4861 40.0063C28.6581 40.0063 27.9868 40.6779 27.9868 41.5063C27.9868 42.3348 28.6581 43.0063 29.4861 43.0063Z" fill="black"/>
<path d="M51.9756 11.0013C51.5159 11.0013 51.0561 11.0413 50.5963 11.0913C45.5486 6.60046 38.9717 4 31.985 4C24.9983 4 18.4214 6.60046 13.3737 11.0913C12.9139 11.0413 12.4542 11.0013 11.9944 11.0013C5.37748 11.0013 0 16.3822 0 23.0034C0 24.4537 0.249883 25.8639 0.759644 27.2141C1.43933 29.0245 2.5688 30.6248 3.99813 31.915C3.99813 31.945 3.99813 31.975 3.99813 32.015C4.01812 36.1457 4.9077 40.1165 6.63689 43.8171L4.15805 48.848C3.78822 49.5881 4.09808 50.4883 4.83773 50.8584C5.04763 50.9684 5.27753 51.0184 5.49742 51.0184C6.04717 51.0184 6.57692 50.7083 6.84679 50.1782L9.57551 44.6373C9.84539 44.2072 9.88537 43.6571 9.64548 43.177C7.90629 39.6964 7.01671 35.9357 6.99672 32.005C6.99672 29.9446 7.42652 28.6344 7.76636 27.9443C8.98579 28.5844 10.0153 31.0148 10.3452 32.225C10.5051 32.7951 10.9749 33.2252 11.5646 33.3152C12.1543 33.4052 12.734 33.1452 13.0539 32.6451C16.6822 26.9841 21.1201 24.9137 23.449 25.8339C25.3381 26.574 26.0278 29.3745 25.3081 33.3352C23.3591 44.0271 14.5732 45.9775 14.2133 46.0475C13.6336 46.1675 13.1738 46.6176 13.0439 47.1977L11.0448 56.1993C10.8649 57.0095 11.3747 57.8096 12.1843 57.9896C12.2942 58.0096 12.4042 58.0296 12.5141 58.0296C13.2038 58.0296 13.8235 57.5496 13.9734 56.8594L15.7726 48.748C18.5413 47.8778 26.3177 44.5372 28.2568 33.8853C29.6961 26.0039 26.1477 23.6835 24.5485 23.0534C22.3095 22.1732 19.6108 22.7033 16.962 24.3636C17.4418 22.8034 18.5913 20.913 21.32 19.8128C27.2472 17.4224 30.5657 22.4733 30.7156 22.7033C30.7156 22.7133 30.7356 22.7233 30.7456 22.7433C30.7656 22.7633 30.7756 22.7834 30.7956 22.8034C30.8455 22.8634 30.8855 22.9234 30.9455 22.9734C30.9455 22.9734 30.9555 22.9834 30.9655 22.9934C31.0355 23.0534 31.1054 23.1134 31.1854 23.1634C31.1854 23.1634 31.1954 23.1634 31.2054 23.1634C31.2853 23.2134 31.3553 23.2534 31.4453 23.2834C31.4653 23.2834 31.4852 23.2934 31.5052 23.3034C31.5752 23.3235 31.6452 23.3435 31.7251 23.3635C31.7551 23.3635 31.7751 23.3635 31.8051 23.3635C31.8751 23.3635 31.945 23.3735 32.015 23.3735C32.045 23.3735 32.065 23.3735 32.095 23.3735C32.1649 23.3735 32.2349 23.3635 32.3049 23.3435C32.3248 23.3435 32.3548 23.3335 32.3748 23.3235C32.4448 23.3034 32.5148 23.2834 32.5847 23.2534C32.6047 23.2534 32.6347 23.2334 32.6547 23.2234C32.7047 23.2034 32.7546 23.1834 32.8046 23.1534C32.8246 23.1534 32.8346 23.1334 32.8446 23.1234C32.8646 23.1034 32.8846 23.0934 32.9146 23.0734C32.9745 23.0334 33.0245 22.9834 33.0745 22.9334C33.0945 22.9134 33.1145 22.8834 33.1345 22.8634C33.1745 22.8134 33.2144 22.7633 33.2544 22.7133C33.2544 22.7133 33.2644 22.6933 33.2744 22.6833C33.4143 22.4633 36.7328 17.4024 42.67 19.7928C45.4087 20.893 46.5582 22.7934 47.038 24.3436C44.3892 22.6833 41.7005 22.1432 39.4515 23.0234C37.8623 23.6535 34.3039 25.9639 35.7432 33.8553C37.6923 44.4972 45.4587 47.8478 48.2274 48.718L50.0266 56.8294C50.1865 57.5296 50.7962 57.9996 51.4859 57.9996C51.5958 57.9996 51.7058 57.9896 51.8157 57.9596C52.6253 57.7796 53.1351 56.9795 52.9552 56.1693L50.9561 47.1677C50.8262 46.5876 50.3664 46.1475 49.7967 46.0275C49.4268 45.9475 40.6509 44.0071 38.6919 33.3152C37.9722 29.3645 38.6619 26.564 40.551 25.8139C42.8799 24.8937 47.3178 26.9741 50.9461 32.6251C51.266 33.1252 51.8457 33.3852 52.4354 33.2952C53.0251 33.2052 53.4949 32.7751 53.6549 32.205C53.9847 30.9948 55.0142 28.5744 56.2336 27.9243C56.5735 28.6244 57.0133 29.9246 57.0033 31.975C56.9833 35.9057 56.0937 39.6664 54.3545 43.147C54.1146 43.6271 54.1646 44.1772 54.4245 44.6073L57.1532 50.1482C57.4131 50.6783 57.9428 50.9884 58.5026 50.9884C58.7225 50.9884 58.9524 50.9384 59.1623 50.8284C59.9019 50.4583 60.2118 49.5581 59.8419 48.818L57.3631 43.7871C59.0923 40.0864 59.9819 36.1257 60.0019 31.985C60.0019 31.955 60.0019 31.925 60.0019 31.885C61.4412 30.5947 62.5707 28.9945 63.2404 27.1841C63.7401 25.8439 64 24.4236 64 22.9734C64 16.3522 58.6225 10.9712 52.0056 10.9712L51.9756 11.0013ZM60.4017 26.164C60.1518 26.8241 59.822 27.4342 59.4321 28.0143C58.8924 26.234 58.1228 25.3838 57.9928 25.2438C57.7229 24.9737 57.3731 24.8137 56.9933 24.7937C54.3945 24.6437 52.7653 26.8241 51.7957 28.7244C51.3159 28.1343 50.8262 27.5842 50.3264 27.0641C50.5463 24.5037 49.4668 19.3027 43.7695 17.0123C38.402 14.8519 34.234 17.1623 31.985 19.4928C29.7361 17.1623 25.568 14.8519 20.2005 17.0123C14.5032 19.3027 13.4237 24.5037 13.6436 27.0641C13.1438 27.5742 12.6541 28.1343 12.1743 28.7244C11.2047 26.8241 9.53553 24.6437 6.97673 24.7937C6.59691 24.8137 6.23708 24.9737 5.9772 25.2438C5.84726 25.3738 5.07762 26.234 4.53787 28.0143C4.14806 27.4342 3.81821 26.8241 3.56833 26.164C3.18851 25.1538 2.99859 24.0936 2.99859 23.0034C2.99859 18.5726 6.20709 14.8919 10.4251 14.1518C9.23567 15.5921 8.17617 17.1624 7.27659 18.8427C6.88677 19.5728 7.16664 20.4829 7.8963 20.873C8.1162 20.993 8.36608 21.053 8.60597 21.053C9.14571 21.053 9.65547 20.763 9.92535 20.2629C14.2833 12.0814 22.7293 7.00054 31.985 7.00054C41.2407 7.00054 49.6867 12.0814 54.0447 20.2529C54.3145 20.763 54.8343 21.043 55.364 21.043C55.6039 21.043 55.8438 20.983 56.0737 20.863C56.8034 20.4729 57.0832 19.5628 56.6934 18.8326C55.7938 17.1423 54.7343 15.5721 53.5449 14.1418C57.7529 14.8919 60.9714 18.5726 60.9714 22.9934C60.9714 24.0836 60.7815 25.1438 60.4017 26.154V26.164Z" fill="black"/>
<path d="M45.1787 53.2388C41.2506 55.7393 36.8127 57.0095 31.9949 57.0095C27.1772 57.0095 22.7393 55.7393 18.8111 53.2388C18.1114 52.7888 17.1819 52.9988 16.7421 53.6989C16.3023 54.399 16.5022 55.3292 17.2019 55.7693C21.6198 58.5798 26.5975 60.0001 31.9949 60.0001C37.3924 60.0001 42.3701 58.5798 46.788 55.7693C47.4877 55.3292 47.6976 54.399 47.2478 53.6989C46.808 52.9988 45.8784 52.7888 45.1787 53.2388Z" fill="black"/>
<path d="M34.4839 43.0063C35.312 43.0063 35.9832 42.3348 35.9832 41.5063C35.9832 40.6779 35.312 40.0063 34.4839 40.0063C33.6559 40.0063 32.9846 40.6779 32.9846 41.5063C32.9846 42.3348 33.6559 43.0063 34.4839 43.0063Z" fill="black"/>
</svg>

<svg width="64" height="64" viewBox="0 0 64 64" fill="none" xmlns="http://www.w3.org/2000/svg"><path d="M24.488 46.648c0 .14-.05 3.53 2.19 5.83 1.319 1.351 3.108 2.041 5.307 2.041 2.199 0 3.988-.69 5.307-2.04 2.25-2.3 2.2-5.681 2.19-5.831-.02-.81-.69-1.46-1.5-1.46H25.988c-.81 0-1.48.65-1.5 1.46Zm7.497 1.54h4.298c-.18.72-.51 1.56-1.15 2.21-.75.75-1.779 1.12-3.148 1.12-1.37 0-2.399-.37-3.149-1.12-.64-.65-.98-1.49-1.15-2.21h4.299Zm-2.499-5.182a1.5 1.5 0 1 0 0-2.999 1.5 1.5 0 0 0 0 3Z" fill="currentColor"/><path d="M51.976 11.001c-.46 0-.92.04-1.38.09A27.971 27.971 0 0 0 31.985 4c-6.987 0-13.564 2.6-18.611 7.091-.46-.05-.92-.09-1.38-.09C5.377 11.001 0 16.382 0 23.003c0 1.45.25 2.86.76 4.211.68 1.81 1.809 3.41 3.238 4.701v.1a28 28 0 0 0 2.639 11.802l-2.479 5.031c-.37.74-.06 1.64.68 2.01.21.11.44.16.66.16.55 0 1.079-.31 1.349-.84l2.729-5.54c.27-.43.31-.98.07-1.461-1.74-3.48-2.63-7.241-2.65-11.172 0-2.06.43-3.37.77-4.06 1.22.64 2.25 3.07 2.58 4.28.16.57.629 1 1.219 1.09.59.09 1.169-.17 1.489-.67 3.628-5.66 8.066-7.731 10.395-6.811 1.89.74 2.579 3.54 1.86 7.501-1.95 10.692-10.736 12.642-11.096 12.712-.58.12-1.04.57-1.17 1.15L11.046 56.2a1.5 1.5 0 0 0 1.14 1.79c.11.02.22.04.33.04.689 0 1.308-.48 1.458-1.17l1.8-8.111c2.768-.87 10.545-4.21 12.484-14.863 1.44-7.881-2.11-10.201-3.709-10.832-2.238-.88-4.937-.35-7.586 1.31.48-1.56 1.63-3.45 4.358-4.55 5.927-2.39 9.246 2.66 9.396 2.89 0 .01.02.02.03.04.02.02.03.04.05.06.05.06.09.12.15.17l.02.02c.07.06.14.12.22.17h.02c.08.05.15.09.24.12.02 0 .04.01.06.02.07.02.14.04.22.06h.08c.07 0 .139.01.209.01h.08c.07 0 .14-.01.21-.03.02 0 .05-.01.07-.02.07-.02.14-.04.21-.07.02 0 .05-.02.07-.03.05-.02.1-.04.15-.07.02 0 .03-.02.04-.03.02-.02.04-.03.07-.05.06-.04.11-.09.16-.14.02-.02.04-.05.06-.07l.12-.15s.01-.02.02-.03c.14-.22 3.458-5.28 9.395-2.89 2.739 1.1 3.888 3 4.368 4.55-2.649-1.66-5.337-2.2-7.586-1.32-1.59.63-5.148 2.94-3.709 10.832 1.95 10.642 9.716 13.993 12.484 14.863l1.8 8.111c.16.7.77 1.17 1.459 1.17.11 0 .22-.01.33-.04a1.5 1.5 0 0 0 1.14-1.79l-2-9.001c-.13-.58-.59-1.02-1.16-1.14-.37-.08-9.145-2.02-11.104-12.713-.72-3.95-.03-6.751 1.859-7.501 2.329-.92 6.767 1.16 10.395 6.811.32.5.9.76 1.49.67.59-.09 1.059-.52 1.219-1.09.33-1.21 1.36-3.63 2.579-4.28.34.7.78 2 .77 4.05-.02 3.93-.91 7.691-2.65 11.172-.24.48-.19 1.03.07 1.46l2.73 5.541c.26.53.789.84 1.349.84.22 0 .45-.05.66-.16a1.503 1.503 0 0 0 .679-2.01l-2.479-5.03a27.967 27.967 0 0 0 2.639-11.803v-.1c1.44-1.29 2.569-2.89 3.238-4.7.5-1.341.76-2.761.76-4.212 0-6.62-5.377-12.002-11.994-12.002l-.03.03Zm8.426 15.163c-.25.66-.58 1.27-.97 1.85-.54-1.78-1.31-2.63-1.44-2.77-.27-.27-.619-.43-.999-.45-2.599-.15-4.228 2.03-5.197 3.93-.48-.59-.97-1.14-1.47-1.66.22-2.56-.86-7.761-6.556-10.052-5.368-2.16-9.536.15-11.785 2.48-2.249-2.33-6.417-4.64-11.784-2.48-5.698 2.29-6.777 7.492-6.557 10.052-.5.51-.99 1.07-1.47 1.66-.97-1.9-2.638-4.08-5.197-3.93-.38.02-.74.18-1 .45-.13.13-.9.99-1.44 2.77a9.06 9.06 0 0 1-.969-1.85 8.934 8.934 0 0 1-.57-3.16c0-4.431 3.21-8.112 7.427-8.852a28.485 28.485 0 0 0-3.148 4.69c-.39.73-.11 1.64.62 2.031a1.496 1.496 0 0 0 2.028-.61C14.283 12.08 22.73 7 31.985 7c9.256 0 17.702 5.08 22.06 13.252.27.51.79.79 1.319.79.24 0 .48-.06.71-.18.73-.39 1.01-1.3.62-2.03-.9-1.69-1.96-3.26-3.15-4.691 4.209.75 7.427 4.43 7.427 8.851 0 1.09-.19 2.15-.57 3.161v.01Z" fill="currentColor"/><path d="M45.179 53.239c-3.928 2.5-8.366 3.77-13.184 3.77s-9.256-1.27-13.184-3.77c-.7-.45-1.63-.24-2.069.46-.44.7-.24 1.63.46 2.07C21.62 58.58 26.597 60 31.995 60c5.397 0 10.375-1.42 14.793-4.23.7-.44.91-1.371.46-2.071-.44-.7-1.37-.91-2.07-.46ZM34.484 43.006a1.5 1.5 0 1 0 0-2.999 1.5 1.5 0 0 0 0 3Z" fill="currentColor"/></svg>
